X: 1
T: New Dawn, New Day
C: David A. Kaynor \251 2021
%D:2021
Z: 2021 John Chambers <jc:trillian.mit.edu>
S: https://natunelist.net/new-dawn-new-day/
M: 2/4
L: 1/8
K: D
|: A \
| "D"ab/a/ "A7"gf | "D"g a2 A | "Bm"d/e/f "Em"ed | "A"c A2 A |\
| "Bm"Bc/d/ "Em"ed | "A"c/B/A "G"B/A/G | "D"Ad "A"dc | "D"d3 :|
|: e/d/ \
| "A"cA "Em"A/B/c/d/ | "A"cA "Em"A/B/c/d/ | "A"ef ga | "G"g2"D"fe/d/ |\
| "A"cA "Em"A/B/c/d/ | "A"c/B/A "G"B/A/G | "D"Ad "A"dc | "D"d3 :|
